X:18002
T:Rakes Of Mallow, The
R:Polka
C:Trad.
O:Ireland
M:2/4
L:1/8
Q:1/4=120
K:G
"G"GB GB|GB c/B/A/G/|"D"FA FA|FA d/c/B/A/|
"G"GB GB|GB d>B|"D7"c/B/A/G/ F/G/A/c/|"G"BG G2:|
|:"G"gf/e/dc|Bc d>B|gf/e/dc|"D"Bd A>d|
"G"gf/e/dc|Bc d>B|"D7"c/B/A/G/ F/G/A/c/|"G"BG G2:|

